Bloom-Colors/16x16/places/folder-important.svg

<?xml version="1.0" encoding="UTF-8"?>
<svg width="16" height="16" version="1.1" viewBox="0 0 16 16" xmlns="http://www.w3.org/2000/svg" xmlns:cc="http://creativecommons.org/ns#" xmlns:dc="http://purl.org/dc/elements/1.1/" xmlns:rdf="http://www.w3.org/1999/02/22-rdf-syntax-ns#">
 <metadata>
  <rdf:RDF>
   <cc:Work rdf:about="">
    <dc:format>image/svg+xml</dc:format>
    <dc:type rdf:resource="http://purl.org/dc/dcmitype/StillImage"/>
    <dc:title/>
   </cc:Work>
  </rdf:RDF>
 </metadata>
 <defs>
  <style id="current-color-scheme" type="text/css">.ColorScheme-Text { color:#444444; } .ColorScheme-Highlight { color:#5294e2; }</style>
 </defs>
 <path class="ColorScheme-Text" d="m8 1c-3.866 0-7 3.134-7 7s3.134 7 7 7 7-3.134 7-7-3.134-7-7-7zm-1 2h2v6h-2zm1 7c0.552 0 1 0.448 1 1s-0.448 1-1 1-1-0.448-1-1 0.448-1 1-1z" fill="#808080"/>
</svg>

<svg xmlns="http://www.w3.org/2000/svg" width="16" height="16" version="1.1">
 <defs>
  <style id="current-color-scheme" type="text/css">
   .ColorScheme-Text { color:#666666; } .ColorScheme-Highlight { color:#4285f4; }
  </style>
 </defs>
 <path style="fill:currentColor" class="ColorScheme-Text" d="M 8,1 C 4.134,1 1,4.134 1,8 1,11.866 4.134,15 8,15 11.866,15 15,11.866 15,8 15,4.134 11.866,1 8,1 Z M 7,3 H 9 V 9 H 7 Z M 8,10 C 8.552,10 9,10.448 9,11 9,11.552 8.552,12 8,12 7.448,12 7,11.552 7,11 7,10.448 7.448,10 8,10 Z"/>
</svg>
